X:62
%%score 1 2
%%pagewidth 7.5in
T:Lord Thomas and fair Ellinor
M:6/8
L:1/8
K:A
V:1 clef-treble
V:2 clef-bass octave=-1
V:1 
E|ABc B2A&C3F3|[EG]FG E2B|cde c2A&E3E3|
w:Lord Thomas* he was a bold fo-res-ter, And a chaser of the king's
V:2
z|A3D3|E3-E2z|A3[A,A]3|
V:1
[EB]3-[EB]2B|cde c2A&E3E3|[E(G]F)G E2E|ABc c2B&E3[DG]3|[CA]3-[CA]2||
w:deer,* Fair El-li-nor was a fine* woman, And Lord Thomas* he loved her dear.*
V:2
[EA]3-[EA]2z|A3A,3|E3D3|C3E3|(A3A,2)||

